assets/play-fill.svg

<svg xmlns="http://www.w3.org/2000/svg" fill="none" viewBox="0 0 28 28">
  <mask id="a" fill="#fff">
    <path fill-rule="evenodd" d="M14 28c7.732 0 14-6.268 14-14 0-7.73199-6.268-14-14-14C6.26801 0 0 6.26801 0 14c0 7.732 6.26801 14 14 14Zm-5-5.3397L24 14 9 5.33975V22.6603Z" clip-rule="evenodd"/>
  </mask>
  <path fill="#2A2238" fill-rule="evenodd" d="M14 28c7.732 0 14-6.268 14-14 0-7.73199-6.268-14-14-14C6.26801 0 0 6.26801 0 14c0 7.732 6.26801 14 14 14Zm-5-5.3397L24 14 9 5.33975V22.6603Z" clip-rule="evenodd"/>
  <path fill="#2A2238" d="m24 14 .75 1.299L27 14l-2.25-1.299L24 14ZM9 22.6603H7.5v2.598l2.25-1.299-.75-1.299ZM9 5.33975l.75-1.29904L7.5 2.74167v2.59808H9ZM26.5 14c0 6.9036-5.5964 12.5-12.5 12.5v3c8.5604 0 15.5-6.9396 15.5-15.5h-3ZM14 1.5c6.9036 0 12.5 5.59644 12.5 12.5h3c0-8.56041-6.9396-15.5-15.5-15.5v3ZM1.5 14C1.5 7.09644 7.09644 1.5 14 1.5v-3C5.43959-1.5-1.5 5.43959-1.5 14h3ZM14 26.5C7.09644 26.5 1.5 20.9036 1.5 14h-3c0 8.5604 6.93959 15.5 15.5 15.5v-3Zm9.25-13.799-15 8.6602 1.5 2.5981 15-8.6603-1.5-2.598Zm-15-6.06222 15 8.66022 1.5-2.598-15-8.66029-1.5 2.59807ZM10.5 22.6603V5.33975h-3V22.6603h3Z" mask="url(#a)"/>
</svg>

<svg width="28" height="28" viewBox="0 0 28 28" fill="none" xmlns="http://www.w3.org/2000/svg">
<mask id="path-1-inside-1_11_275" fill="white">
<path fill-rule="evenodd" clip-rule="evenodd" d="M14 28C21.732 28 28 21.732 28 14C28 6.26801 21.732 0 14 0C6.26801 0 0 6.26801 0 14C0 21.732 6.26801 28 14 28ZM9 22.6603L24 14L9 5.33975V22.6603Z"/>
</mask>
<path fill-rule="evenodd" clip-rule="evenodd" d="M14 28C21.732 28 28 21.732 28 14C28 6.26801 21.732 0 14 0C6.26801 0 0 6.26801 0 14C0 21.732 6.26801 28 14 28ZM9 22.6603L24 14L9 5.33975V22.6603Z" fill="#2A2238"/>
<path d="M24 14L24.75 15.299L27 14L24.75 12.701L24 14ZM9 22.6603H7.5V25.2583L9.75 23.9593L9 22.6603ZM9 5.33975L9.75 4.04071L7.5 2.74167V5.33975H9ZM26.5 14C26.5 20.9036 20.9036 26.5 14 26.5V29.5C22.5604 29.5 29.5 22.5604 29.5 14H26.5ZM14 1.5C20.9036 1.5 26.5 7.09644 26.5 14H29.5C29.5 5.43959 22.5604 -1.5 14 -1.5V1.5ZM1.5 14C1.5 7.09644 7.09644 1.5 14 1.5V-1.5C5.43959 -1.5 -1.5 5.43959 -1.5 14H1.5ZM14 26.5C7.09644 26.5 1.5 20.9036 1.5 14H-1.5C-1.5 22.5604 5.43959 29.5 14 29.5V26.5ZM23.25 12.701L8.25 21.3612L9.75 23.9593L24.75 15.299L23.25 12.701ZM8.25 6.63878L23.25 15.299L24.75 12.701L9.75 4.04071L8.25 6.63878ZM10.5 22.6603V5.33975H7.5V22.6603H10.5Z" fill="#2A2238" mask="url(#path-1-inside-1_11_275)"/>
</svg>
